public/avatar/item2/55.svg

<svg xmlns:xlink="http://www.w3.org/1999/xlink" height="99.2" width="82.2" xmlns="http://www.w3.org/2000/svg"><use height="26.2" transform="translate(2.15 70.95)" width="25.7" xlink:href="#a"/><defs><use height="26.2" width="25.7" xlink:href="#b" id="a"/><g id="b" fill-rule="evenodd"><path d="M9.6-5.65Q7.2-3.5 6.25-3.55l-.2-.1-4.3 4.1q3.1 3.1 5.55 2.95h.75v.75Q8 9.4 4.95 11.5q-3.1 2.55-8.2 1l-.95-.3.6-.8q.4-.6.15-1.8-.15-1.05-1.3-2.8.1 1.8-2 2.2-1.05.15-1.8-.8-.95-.9-.75-1.95Q-8.9 4.1-7 4.3q-1.65-1.25-2.85-1.55l-1.5.15-.9.65-.2-1.05q-1.25-5.25 1.3-8.3Q-8.8-8.7-4-8.6l.8.05-.05.75.05 1.35q.35 1.9 2.3 4.05l.25.3L3.5-6.3l-.1-.3q0-.9 2.1-3.25 2.15-2.4 3.55-3 1.7-.75 2.85.8.75.6.9 1.45.15.8-.2 1.45-.55 1.4-3 3.5" fill="#1a171b" transform="translate(12.85 13.1)"/><path d="M-4.1-7.85q-.3 2.8 2.55 5.95Q-5.95.8-7.3 2.5q-1.65-1-3-.85l-1 .3q-2.35-10.05 7.2-9.8" fill="#fff" transform="translate(12.85 13.1)"/><path d="M-1.55-1.9-.3-.5q-2.6 3.3-4.65 4.85Q-6.3 3.05-7.3 2.5-5.95.8-1.55-1.9" fill="#e3e1de" transform="translate(12.85 13.1)"/><path d="M-2.6 11.45q1.85-2.2-2.15-6.9l-.2-.2Q-2.9 2.8-.3-.5l.3.35 2.8 2.7q2.2 1.7 4.4 1.6-.05 4.8-2.65 6.75-2.6 1.95-7.15.55m-1.55-19.3q-.3 3.2 1.8 6.65-3.95 1.05-7.5 3.3l-2.05.25q-1.1-4.7 1.05-7.5 2.1-2.8 6.7-2.7" fill="#e3e1de" transform="translate(12.85 13.1)"/><path d="M-7.5-.35q2.2-1.3 5.15-.85L-1.2.5q4.1 3.95 8.35 3.75-.05 4.8-2.95 6.9-2.85 2.1-7.4.7 1.8-2.2-2.2-6.9-2.5-2.5-4.45-2.85Q-9.3.65-7.5-.35" fill="#b1b1b3" transform="translate(12.85 13.1)"/><path d="M-9.9-3.8q-1.85 2.55-.95 5.4l-.85.15q-.65-4 1-6.3 1.85-2.6 6.05-2.7l.1 1.1-1.9.15q-2.15.45-3.45 2.2" fill="#fff" transform="translate(12.85 13.1)"/><path d="M5.25-8.1 7.7-5.45-5.7 7.1l-1.8-2L5.25-8.1" fill="#1a171b" transform="translate(12.85 13.1)"/><path d="M6.9-5.6-5.8 6.55l-1.15-1.3L5.3-7.25 6.9-5.6" fill="#e3e1de" transform="translate(12.85 13.1)"/><path d="m3.8-5.65.55.75L-6.1 5.45l-.55-.5L3.8-5.65" fill="#959792" transform="translate(12.85 13.1)"/><path d="m4.85-4.25.4.25-10.7 10.25-.2-.3 10.5-10.2" fill="#585858" transform="translate(12.85 13.1)"/><path d="M4.35-4.8q-1-1-1-1.9.05-.85 2.15-3.2 2.1-2.4 3.35-2.95 1.7-.7 2.9.8 1.5 1.3.75 3-.55 1.3-3 3.4-2.4 2.1-3.25 2-.75 0-1.9-1.15" fill="#1a171b" transform="translate(12.85 13.1)"/><path d="M11.25-11.6q1.05 1 .6 2.25-.55 1.25-2.9 3.25-2.2 1.9-2.8 1.85L5.5-4.5l3.25-3.2q2.05-2.15 2.2-4.2l.3.3" fill="#723d28" transform="translate(12.85 13.1)"/><path d="M10.95-11.9q-.15 2.05-2.2 4.2L5.5-4.5l-.75-.65-.05-.1q1.95-4 5.15-7.05.55-.05 1.1.4" fill="#8d5b3f" transform="translate(12.85 13.1)"/><path d="m9.15-12.15.7-.15Q6.65-9.25 4.7-5.25q-.75-.65-.75-1.3t1.95-2.8q2.05-2.3 3.25-2.8" fill="#b68862" transform="translate(12.85 13.1)"/><path d="M-6.8 8.75q-.8.15-1.6-.8-.9-.9-.75-1.75.35-1.8 1.75-1.6l1.4.95q.8 1.1.85 1.45.1 1.4-1.65 1.75" fill="#1a171b" transform="translate(12.85 13.1)"/><path d="M-8.05 7.9q.2-1.6 1.3-2.6l.5.5q.65.65.65 1.05.15 1.2-1.4 1.5-.55.05-1.05-.45" fill="#b1b1b3" transform="translate(12.85 13.1)"/><path d="m-7.25 5.05.5.25q-1.1 1-1.3 2.6l-.15-.15q-.7-.7-.55-1.3.35-1.65 1.5-1.4" fill="#e3e1de" transform="translate(12.85 13.1)"/><path d="m-2.45 10.75.25.05-.2.85-.2-.05.15-.85m7.85-6.2 1.15.15q-.2 4.4-2.9 6.2l-1.25.6-.45-.95.95-.5q1.8-1.3 2.35-3.5l.15-2" fill="#fff" transform="translate(12.85 13.1)"/><path d="m0 1.55 1.75 1.2q-1.95 2.45.2 7.8l-4.15.25q.3-3.1-2.05-5.2L0 1.55" fill="#7e7e7e" transform="translate(12.85 13.1)"/><path d="m2.4 11.5.25.45-5.2.15.15-.45 4.8-.15" fill="#585858" transform="translate(12.85 13.1)"/><path d="m1.95 10.55.45.95-4.8.15.2-.85 4.15-.25" fill="#b1b1b3" transform="translate(12.85 13.1)"/></g></defs></svg>

<?xml version="1.0" encoding="UTF-8" standalone="no"?>
<svg xmlns:xlink="http://www.w3.org/1999/xlink" height="99.2px" width="82.2px" xmlns="http://www.w3.org/2000/svg">
  <g transform="matrix(1.0, 0.0, 0.0, 1.0, 31.0, 46.75)">
    <use height="26.2" transform="matrix(1.0, 0.0, 0.0, 1.0, -28.85, 24.2)" width="25.7" xlink:href="#sprite0"/>
  </g>
  <defs>
    <g id="sprite0" transform="matrix(1.0, 0.0, 0.0, 1.0, 12.85, 13.1)">
      <use height="26.2" transform="matrix(1.0, 0.0, 0.0, 1.0, -12.85, -13.1)" width="25.7" xlink:href="#shape0"/>
    </g>
    <g id="shape0" transform="matrix(1.0, 0.0, 0.0, 1.0, 12.85, 13.1)">
      <path d="M9.6 -5.65 Q7.2 -3.5 6.25 -3.55 L6.05 -3.65 1.75 0.45 Q4.85 3.55 7.3 3.4 L8.05 3.4 8.05 4.15 Q8.0 9.4 4.95 11.5 1.85 14.05 -3.25 12.5 L-4.2 12.2 -3.6 11.4 Q-3.2 10.8 -3.45 9.6 -3.6 8.55 -4.75 6.8 -4.65 8.6 -6.75 9.0 -7.8 9.15 -8.55 8.2 -9.5 7.3 -9.3 6.25 -8.9 4.1 -7.0 4.3 -8.65 3.05 -9.85 2.75 L-11.35 2.9 -12.25 3.55 -12.45 2.5 Q-13.7 -2.75 -11.15 -5.8 -8.8 -8.7 -4.0 -8.6 L-3.2 -8.55 -3.25 -7.8 -3.2 -6.45 Q-2.85 -4.55 -0.9 -2.4 L-0.65 -2.1 3.5 -6.3 3.4 -6.6 Q3.4 -7.5 5.5 -9.85 7.65 -12.25 9.05 -12.85 10.75 -13.6 11.9 -12.05 12.65 -11.45 12.8 -10.6 12.95 -9.8 12.6 -9.15 12.05 -7.75 9.6 -5.65" fill="#1a171b" fill-rule="evenodd" stroke="none"/>
      <path d="M-4.1 -7.85 Q-4.4 -5.05 -1.55 -1.9 -5.95 0.8 -7.3 2.5 -8.95 1.5 -10.3 1.65 L-11.3 1.95 Q-13.65 -8.1 -4.1 -7.85" fill="#ffffff" fill-rule="evenodd" stroke="none"/>
      <path d="M-1.55 -1.9 L-0.3 -0.5 Q-2.9 2.8 -4.95 4.35 -6.3 3.05 -7.3 2.5 -5.95 0.8 -1.55 -1.9" fill="#e3e1de" fill-rule="evenodd" stroke="none"/>
      <path d="M-2.6 11.45 Q-0.75 9.25 -4.75 4.55 L-4.95 4.35 Q-2.9 2.8 -0.3 -0.5 L0.0 -0.15 2.8 2.55 Q5.0 4.25 7.2 4.15 7.15 8.95 4.55 10.9 1.95 12.85 -2.6 11.45" fill="#e3e1de" fill-rule="evenodd" stroke="none"/>
      <path d="M-4.15 -7.85 Q-4.45 -4.65 -2.35 -1.2 -6.3 -0.15 -9.85 2.1 L-11.9 2.35 Q-13.0 -2.35 -10.85 -5.15 -8.75 -7.95 -4.15 -7.85" fill="#e3e1de" fill-rule="evenodd" stroke="none"/>
      <path d="M-7.5 -0.35 Q-5.3 -1.65 -2.35 -1.2 L-1.2 0.5 Q2.9 4.45 7.15 4.25 7.1 9.05 4.2 11.15 1.35 13.25 -3.2 11.85 -1.4 9.65 -5.4 4.95 -7.9 2.45 -9.85 2.1 -9.3 0.65 -7.5 -0.35" fill="#b1b1b3" fill-rule="evenodd" stroke="none"/>
      <path d="M-9.9 -3.8 Q-11.75 -1.25 -10.85 1.6 L-11.7 1.75 Q-12.35 -2.25 -10.7 -4.55 -8.85 -7.15 -4.65 -7.25 L-4.55 -6.15 -6.45 -6.0 Q-8.6 -5.55 -9.9 -3.8" fill="#ffffff" fill-rule="evenodd" stroke="none"/>
      <path d="M5.25 -8.1 L7.7 -5.45 -5.7 7.1 -7.5 5.1 5.25 -8.1" fill="#1a171b" fill-rule="evenodd" stroke="none"/>
      <path d="M6.9 -5.6 L-5.8 6.55 -6.95 5.25 5.3 -7.25 6.9 -5.6" fill="#e3e1de" fill-rule="evenodd" stroke="none"/>
      <path d="M3.8 -5.65 L4.35 -4.9 -6.1 5.45 -6.65 4.95 3.8 -5.65" fill="#959792" fill-rule="evenodd" stroke="none"/>
      <path d="M4.85 -4.25 L5.25 -4.0 -5.45 6.25 -5.65 5.95 4.85 -4.25" fill="#585858" fill-rule="evenodd" stroke="none"/>
      <path d="M4.35 -4.8 Q3.35 -5.8 3.35 -6.7 3.4 -7.55 5.5 -9.9 7.6 -12.3 8.85 -12.85 10.55 -13.55 11.75 -12.05 13.25 -10.75 12.5 -9.05 11.95 -7.75 9.5 -5.65 7.1 -3.55 6.25 -3.65 5.5 -3.65 4.35 -4.8" fill="#1a171b" fill-rule="evenodd" stroke="none"/>
      <path d="M11.25 -11.6 Q12.3 -10.6 11.85 -9.35 11.3 -8.1 8.95 -6.1 6.75 -4.2 6.15 -4.25 L5.5 -4.5 8.75 -7.7 Q10.8 -9.85 10.95 -11.9 L11.25 -11.6" fill="#723d28" fill-rule="evenodd" stroke="none"/>
      <path d="M10.95 -11.9 Q10.8 -9.85 8.75 -7.7 L5.5 -4.5 4.75 -5.15 4.7 -5.25 Q6.65 -9.25 9.85 -12.3 10.4 -12.35 10.95 -11.9" fill="#8d5b3f" fill-rule="evenodd" stroke="none"/>
      <path d="M9.15 -12.15 L9.85 -12.3 Q6.65 -9.25 4.7 -5.25 3.95 -5.9 3.95 -6.55 3.95 -7.2 5.9 -9.35 7.95 -11.65 9.15 -12.15" fill="#b68862" fill-rule="evenodd" stroke="none"/>
      <path d="M-6.8 8.75 Q-7.6 8.9 -8.4 7.95 -9.3 7.05 -9.15 6.2 -8.8 4.4 -7.4 4.6 L-6.0 5.55 Q-5.2 6.65 -5.15 7.0 -5.05 8.4 -6.8 8.75" fill="#1a171b" fill-rule="evenodd" stroke="none"/>
      <path d="M-8.05 7.9 Q-7.85 6.3 -6.75 5.3 L-6.25 5.8 Q-5.6 6.45 -5.6 6.85 -5.45 8.05 -7.0 8.35 -7.55 8.4 -8.05 7.9" fill="#b1b1b3" fill-rule="evenodd" stroke="none"/>
      <path d="M-7.25 5.05 L-6.75 5.3 Q-7.85 6.3 -8.05 7.9 L-8.2 7.75 Q-8.9 7.05 -8.75 6.45 -8.4 4.8 -7.25 5.05" fill="#e3e1de" fill-rule="evenodd" stroke="none"/>
      <path d="M-2.45 10.75 L-2.2 10.8 -2.4 11.65 -2.6 11.6 -2.45 10.75" fill="#ffffff" fill-rule="evenodd" stroke="none"/>
      <path d="M5.4 4.55 L6.55 4.7 Q6.35 9.1 3.65 10.9 L2.4 11.5 1.95 10.55 2.9 10.05 Q4.7 8.75 5.25 6.55 L5.4 4.55" fill="#ffffff" fill-rule="evenodd" stroke="none"/>
      <path d="M0.0 1.55 L1.75 2.75 Q-0.2 5.2 1.95 10.55 L-2.2 10.8 Q-1.9 7.7 -4.25 5.6 L0.0 1.55" fill="#7e7e7e" fill-rule="evenodd" stroke="none"/>
      <path d="M2.4 11.5 L2.65 11.95 -2.55 12.1 -2.4 11.65 2.4 11.5" fill="#585858" fill-rule="evenodd" stroke="none"/>
      <path d="M1.95 10.55 L2.4 11.5 -2.4 11.65 -2.2 10.8 1.95 10.55" fill="#b1b1b3" fill-rule="evenodd" stroke="none"/>
    </g>
  </defs>
</svg>
